X: 6
T: the Blooming Meadows
T: the High Part of the Road
R: jig
S: Darcie's Trad. Tune Sourcebook
M: 6/8
L: 1/8
K: G
A |:\
B2B cBc | ded cAG | F2D DED | GFG ABc |\
~B3 cBc | dcA cde | fed cAF |[1 AGF G2A :|[2 AGF GBd ||
|:\
~g3 def | g2a bag | ~f3 def | afd cAF |\
~g3def | g2a bag | fed cAF |[1 AGF GBd :|[2 AGF G2 |]

%%sep 1 1 500

